svgs/light/chart-mixed.svg

<svg xmlns="http://www.w3.org/2000/svg" viewBox="0 0 512 512"><!--! Font Awesome Pro 6.4.2 by @fontawesome - https://fontawesome.com License - https://fontawesome.com/license (Commercial License) Copyright 2023 Fonticons, Inc. --><path d="M507.8 37.2c5.9 6.5 5.5 16.7-1.1 22.6l-176 160c-6.3 5.7-16 5.5-22.1-.5L190.4 101 25.4 220.9c-7.1 5.2-17.2 3.6-22.4-3.5s-3.6-17.2 3.5-22.4l176-128c6.4-4.6 15.2-3.9 20.7 1.6L320.5 185.9 485.2 36.2c6.5-5.9 16.7-5.5 22.6 1.1zM80 432V368c0-8.8-7.2-16-16-16s-16 7.2-16 16v64c0 8.8 7.2 16 16 16s16-7.2 16-16zM64 320c26.5 0 48 21.5 48 48v64c0 26.5-21.5 48-48 48s-48-21.5-48-48V368c0-26.5 21.5-48 48-48zm144-48c0-8.8-7.2-16-16-16s-16 7.2-16 16V432c0 8.8 7.2 16 16 16s16-7.2 16-16V272zm-64 0c0-26.5 21.5-48 48-48s48 21.5 48 48V432c0 26.5-21.5 48-48 48s-48-21.5-48-48V272zM336 432V336c0-8.8-7.2-16-16-16s-16 7.2-16 16v96c0 8.8 7.2 16 16 16s16-7.2 16-16zM320 288c26.5 0 48 21.5 48 48v96c0 26.5-21.5 48-48 48s-48-21.5-48-48V336c0-26.5 21.5-48 48-48zm144-16c0-8.8-7.2-16-16-16s-16 7.2-16 16V432c0 8.8 7.2 16 16 16s16-7.2 16-16V272zm-64 0c0-26.5 21.5-48 48-48s48 21.5 48 48V432c0 26.5-21.5 48-48 48s-48-21.5-48-48V272z"/></svg>

<svg xmlns="http://www.w3.org/2000/svg" viewBox="0 0 512 512"><!--! Font Awesome Pro 6.1.1 by @fontawesome - https://fontawesome.com License - https://fontawesome.com/license (Commercial License) Copyright 2022 Fonticons, Inc. --><path d="M507.8 37.24C513.8 43.78 513.3 53.89 506.8 59.84L330.8 219.8C324.4 225.6 314.7 225.4 308.7 219.3L190.4 100.1L25.41 220.9C18.26 226.1 8.258 224.6 3.061 217.4C-2.137 210.3-.5565 200.3 6.59 195.1L182.6 67.06C188.1 62.43 197.7 63.12 203.3 68.69L320.5 185.9L485.2 36.16C491.8 30.22 501.9 30.7 507.8 37.24H507.8zM112 368V432C112 458.5 90.51 480 64 480C37.49 480 16 458.5 16 432V368C16 341.5 37.49 319.1 64 319.1C90.51 319.1 112 341.5 112 368zM80 432V368C80 359.2 72.84 352 64 352C55.16 352 48 359.2 48 368V432C48 440.8 55.16 448 64 448C72.84 448 80 440.8 80 432zM144 271.1C144 245.5 165.5 223.1 192 223.1C218.5 223.1 240 245.5 240 271.1V432C240 458.5 218.5 480 192 480C165.5 480 144 458.5 144 432V271.1zM192 255.1C183.2 255.1 176 263.2 176 271.1V432C176 440.8 183.2 448 192 448C200.8 448 208 440.8 208 432V271.1C208 263.2 200.8 255.1 192 255.1zM368 336V432C368 458.5 346.5 480 320 480C293.5 480 272 458.5 272 432V336C272 309.5 293.5 287.1 320 287.1C346.5 287.1 368 309.5 368 336zM336 432V336C336 327.2 328.8 319.1 320 319.1C311.2 319.1 304 327.2 304 336V432C304 440.8 311.2 448 320 448C328.8 448 336 440.8 336 432zM400 271.1C400 245.5 421.5 223.1 448 223.1C474.5 223.1 496 245.5 496 271.1V432C496 458.5 474.5 480 448 480C421.5 480 400 458.5 400 432V271.1zM448 255.1C439.2 255.1 432 263.2 432 271.1V432C432 440.8 439.2 448 448 448C456.8 448 464 440.8 464 432V271.1C464 263.2 456.8 255.1 448 255.1z"/></svg>
